T: Muineira De Poio
M: 6/8
L: 1/8
K: Gmaj
B|:"Am"cBc A2c|"G"BAB G2B|"D"AFA "G"GEG|"D"AFD D2B|![1 "Am"cBc A2c|"G"BAB G2B|"D"AFA "G"GEG|"D"AFD D2B:|![2 "Am"cBc "C"EGc|"G"BAB "G"DGB|"D"AFA "G"GEG|"D"AFD D3||!"G"GBA "D"FAG|"A"EGF "D"~D3|"D"AFA "G"GEG|"D"AFD ~D3|!"G"GBA "D"FAG|"A"EGF "D"~D3|"G"BAF "A"AGE|"D"~D3 D3:||!"A"ge^c cBc|"D"afd d^cd|"G"baf "A"ag^c|"A"e2d "D"d^cd|!"A"ge^c cBc|"D"afd d2d|"G"baf "A"ge^c|"D"d3-d3:||
